!! 00000] TT[WS
!!!OTL: Zou luoyang
!!!ARE: Asia, China, Shanxi Dingxiang
!! Ethnic Group: Han
!! WII, 185
!!!SCT: J0681
!!!YEM: Copyright 1995, estate of Helmut Schaffrath.
**kern
*ICvox
*Ivox
*M2/4
*k[f#]
*G:
{8dd
8dd
8b
16a
16b
=1
8dd
16a
16b
4dd
=2
8g
16g
16a
16dd
16ee
16dd
16b
=3
16a
16b
16a
16e
4d}
=4
{8.g
16a
16dd
16ee
16dd
16b
=5
8dd
16a
16b
8a
8e
=6
8g
16g
16a
16g
16e
16d
16A
=7
2d}
==
!!!AGN: Xiaodiao. Sichun
!!!ONB: ESAC (Essen Associative Code) Database: CHINA
!!!AMT: simple duple
!!!AIN: vox
!!!EED: Helmut Schaffrath
!!!EEV: 1.0
*-
